brigadir/img/svg/catalog_hoztovari.svg

<svg width="43" height="69" viewBox="0 0 43 69" fill="none" xmlns="http://www.w3.org/2000/svg">
<path fill-rule="evenodd" clip-rule="evenodd" d="M39.4161 12.8613L30.8677 7.58808H34.1429C37.7491 7.54775 40.8707 5.07133 41.7302 1.56882C41.8262 1.19061 41.7422 0.789275 41.5026 0.481303C41.2532 0.165162 40.8681 -0.0132875 40.4657 0.000772892H22.7619C19.9684 0.000772892 17.7037 2.26541 17.7037 5.05898H13.9101C13.771 5.05898 0 5.26131 0 22.7627C0.0645408 27.6272 0.918695 32.4489 2.5291 37.0395C3.49033 39.7752 4.06906 42.6306 4.24889 45.5246C4.26629 46.6918 4.19442 52.8749 4.03392 54.0311C3.88805 55.1052 3.6769 56.1694 3.40164 57.2178C3.08635 58.3573 3.32035 59.5786 4.03449 60.5209C4.74863 61.4632 5.86125 62.0186 7.04355 62.0231C7.67481 62.0242 8.29636 61.8677 8.85186 61.5678C9.75795 61.0754 10.4245 60.2354 10.6981 59.2411C11.1182 57.6886 11.4267 56.1081 11.6212 54.5116C11.8742 52.7316 11.9251 45.9124 11.773 44.121C11.4636 40.9533 10.7802 37.8335 9.73705 34.8265C8.37707 30.9468 7.65118 26.8733 7.58731 22.7627C7.58731 13.0636 13.3157 12.6463 13.9101 12.6463H18.9683V15.9215C15.1494 17.4663 12.6487 21.1724 12.6455 25.2918V64.451C12.6467 64.649 12.6943 64.8439 12.7846 65.0201C13.0502 65.5512 14.7953 68.2447 22.7619 68.2447C30.7286 68.2447 32.4737 65.5512 32.7392 65.0201C32.8295 64.8439 32.8772 64.649 32.8783 64.451V25.2918C32.8752 21.1724 30.3744 17.4663 26.5556 15.9215V13.7591L40.8577 22.611C41.0553 22.7334 41.2828 22.7991 41.5152 22.8006C41.6756 22.803 41.8347 22.7729 41.9831 22.7121C42.3559 22.5658 42.6374 22.2515 42.7418 21.8649C43.2856 19.7657 43.2983 15.2513 39.4161 12.8613ZM15.1746 7.58808H17.8681C17.632 8.41458 17.632 9.29069 17.8681 10.1172H15.1746V7.58808ZM20.2328 8.85263C20.2328 7.45585 21.3651 6.32353 22.7619 6.32353C24.1587 6.32353 25.291 7.45585 25.291 8.85263C25.291 10.2494 24.1587 11.3817 22.7619 11.3817C21.3651 11.3817 20.2328 10.2494 20.2328 8.85263ZM38.5435 2.52988C37.6364 4.10113 35.9572 5.06618 34.1429 5.05898H26.0751C24.4857 3.6326 22.1602 3.38781 20.3087 4.45199C20.5876 3.32371 21.5997 2.53077 22.7619 2.52988H38.5435ZM8.27017 58.5835C8.17696 58.9072 7.95848 59.1802 7.66318 59.3422C7.35315 59.5118 6.98631 59.5439 6.65154 59.4308C6.00778 59.2138 5.65042 58.527 5.84223 57.8754C6.0572 57.0787 6.22159 56.3326 6.34805 55.5992H8.87715C8.76334 56.5476 8.54837 57.5339 8.27017 58.5835ZM9.31975 45.5246V45.6384C9.31975 46.3972 9.31975 52.1849 9.25652 52.9689C9.2627 53.0023 9.2627 53.0366 9.25652 53.0701H6.72742C6.79789 52.229 6.819 46.3682 6.79064 45.5246H9.31975ZM5.05821 22.7627C5.1204 27.1234 5.8891 31.4452 7.3344 35.56C8.14758 37.9817 8.7484 40.4696 9.13006 42.9955H6.60096C6.23581 40.7235 5.6817 38.4859 4.9444 36.3061C3.41502 31.9512 2.59941 27.3778 2.5291 22.7627C2.5291 10.7748 9.67382 8.2583 12.6455 7.72718V10.2563C10.1164 10.8127 5.05821 13.0762 5.05821 22.7627ZM30.3492 38.3167C27.8773 38.9828 25.3208 39.2811 22.7619 39.2019C20.2031 39.2801 17.6467 38.9819 15.1746 38.3167V33.3596C17.6633 33.9235 20.2106 34.1867 22.7619 34.1437C25.3133 34.1867 27.8606 33.9235 30.3492 33.3596V38.3167ZM22.7619 65.7156C17.4761 65.7156 15.6425 64.451 15.1746 64.0211V40.947C17.6633 41.5108 20.2106 41.774 22.7619 41.731C25.3133 41.774 27.8606 41.5108 30.3492 40.947V63.9958C29.8308 64.451 27.9845 65.7156 22.7619 65.7156ZM30.3492 25.2918V30.7294C27.8773 31.3955 25.3208 31.6938 22.7619 31.6146C20.2031 31.6928 17.6467 31.3946 15.1746 30.7294V25.2918C15.1746 21.1015 18.5716 17.7045 22.7619 17.7045C26.9523 17.7045 30.3492 21.1015 30.3492 25.2918ZM21.4974 15.2639V13.7338C22.3239 13.9699 23.2 13.9699 24.0265 13.7338V15.2639C23.6071 15.2088 23.1849 15.1793 22.7619 15.1754C22.339 15.1793 21.9167 15.2088 21.4974 15.2639ZM27.2132 11.1921C27.6084 10.4755 27.8171 9.67099 27.8201 8.85263C27.8201 8.78941 27.8201 8.73882 27.8201 8.6756L38.1009 14.9984C39.5974 15.9395 40.4939 17.5935 40.4657 19.3611L27.2132 11.1921Z" fill="#A5FF14"/>
</svg>

<svg width="43" height="69" fill="none" xmlns="http://www.w3.org/2000/svg"><path fill-rule="evenodd" clip-rule="evenodd" d="M39.416 12.861l-8.548-5.273h3.275a7.903 7.903 0 007.587-6.02 1.266 1.266 0 00-.227-1.087 1.265 1.265 0 00-1.037-.48H22.762a5.058 5.058 0 00-5.058 5.058H13.91C13.771 5.059 0 5.261 0 22.763a44.93 44.93 0 002.53 14.276 31.487 31.487 0 011.719 8.486c.017 1.167-.055 7.35-.215 8.506a26.695 26.695 0 01-.632 3.187 3.794 3.794 0 003.642 4.805 3.793 3.793 0 001.808-.455 3.793 3.793 0 001.846-2.327c.42-1.552.729-3.133.923-4.73.253-1.78.304-8.599.152-10.39a40.317 40.317 0 00-2.036-9.294 38.266 38.266 0 01-2.15-12.064c0-9.7 5.729-10.117 6.323-10.117h5.058v3.275a10.116 10.116 0 00-6.322 9.37v39.16c0 .198.048.393.139.57.265.53 2.01 3.224 9.977 3.224 7.967 0 9.712-2.694 9.977-3.225.09-.176.138-.371.14-.569v-39.16a10.116 10.116 0 00-6.323-9.37V13.76l14.302 8.852a1.264 1.264 0 001.125.101c.373-.146.654-.46.759-.847.544-2.1.556-6.614-3.326-9.004zM15.175 7.588h2.693a4.604 4.604 0 000 2.53h-2.693v-2.53zm5.058 1.265a2.53 2.53 0 115.058 0 2.53 2.53 0 01-5.058 0zm18.31-6.323a5.058 5.058 0 01-4.4 2.529h-8.068a4.944 4.944 0 00-5.766-.607 2.53 2.53 0 012.453-1.922h15.782zM8.27 58.583a1.264 1.264 0 11-2.428-.708c.215-.796.38-1.542.506-2.276h2.53c-.115.949-.33 1.935-.608 2.985zm1.05-13.058v.113c0 .76 0 6.547-.063 7.33a.279.279 0 010 .102h-2.53c.07-.841.092-6.702.064-7.545H9.32zM5.058 22.763c.062 4.36.831 8.682 2.276 12.797a44.018 44.018 0 011.796 7.435H6.601a41.362 41.362 0 00-1.657-6.689A42.843 42.843 0 012.53 22.763c0-11.988 7.145-14.505 10.117-15.036v2.53c-2.53.556-7.588 2.82-7.588 12.506zM30.35 38.317a26.062 26.062 0 01-7.587.885 26.128 26.128 0 01-7.587-.885V33.36c2.488.563 5.036.827 7.587.784a31.9 31.9 0 007.587-.784v4.957zm-7.587 27.399c-5.286 0-7.12-1.265-7.587-1.695V40.947c2.488.564 5.036.827 7.587.784 2.551.043 5.099-.22 7.587-.784v23.049c-.518.455-2.364 1.72-7.587 1.72zm7.587-40.424v5.437a26.062 26.062 0 01-7.587.886 26.128 26.128 0 01-7.587-.886v-5.437a7.587 7.587 0 0115.174 0zm-8.852-10.028v-1.53a4.604 4.604 0 002.53 0v1.53c-.42-.055-.842-.085-1.265-.089-.423.004-.845.034-1.265.089zm5.716-4.072a4.882 4.882 0 00.607-2.34v-.176l10.28 6.322a5.058 5.058 0 012.366 4.363l-13.253-8.169z" fill="#A5FF14"/></svg>
